format-align-bottom.svg

<svg fill="currentColor" viewBox="0 0 24 24"><path d="m13 9 2.5-2.5 1.42 1.42L12 12.84 7.08 7.92 8.5 6.5 11 9V3h2zM3 15h18v2H3zm0 4h10v2H3z"/></svg>

<svg  viewBox="0 0 24 24" fill="currentColor"><path  d="M13,9L15.5,6.5L16.92,7.92L12,12.84L7.08,7.92L8.5,6.5L11,9V3H13V9M3,15H21V17H3V15M3,19H13V21H3V19Z"/></svg>
